X:1
T:Title
%%score { ( 1 3 ) | ( 2 4 ) }
L:1/8
M:4/4
K:D
V:1 treble nm="Grand Piano"
V:3 treble 
V:2 treble 
V:4 treble 
V:1
 z4 z2[Q:1/4=100] A>A | z2 B2 c2 d2 | e2 A>B [EAc]2 c>d | [Ace]2 e>f [Aceg]2 [A=c^df]2 | %4
[M:3/4] [Aceg]2 A>A A2 |[M:1/4][Q:1/4=108] F>[EG] |[M:4/4] [FA]2 [FB]2 [Fc]2 [Fd]2 | [Fd]2 F4 F>E | %8
 D2 F2 [FB]2 [DF]2 | [CG]6 [CE]>[DF] | [EG]2 [FA]2 [GB]2 [Gc]2 | [Gc]2 [CEG]4 [CE]>[DF] | %12
 [EG]2 [FA]2 [GB]2 [Gc]2 | [FA]6 [DF]>[EG] | [FA]2 [FB]2 [Fc]2 [Fd]2 | [Fd]2 F4 D>D | %16
 B2 B2 B2 [EB]2 | e6 z2 | d2 d2 d2 d2 | d2 E4 c>B | A2 G2 [A,DF]2[K:bass] [G,CE]2 |[M:3/4] [F,D]6 | %22
[M:1/4] [G,A,E]>[F,A,D] |[M:4/4] [E,A,C]2[K:treble] [CGB]2 [CGB]2 [CGB]2 | %24
 [CGB]2 [G,CE]4 [A,CF][K:bass][G,CE] | [F,D]2[K:treble] [DFA]2 [DA]2 [CEA]2 | [FA]6 [FB]>[Fc] | %27
 [Fd]2 [Fd]2 [Fc]2 [FB]2 | [Gd]2 [Gc]4 [A,CG]>[A,CA] | [CGB]2 [CGB]2 [CGc]2 [CGc]2 | %30
 [DFA]4- [DFA]>[A,DF][K:bass] [G,A,E]>[F,A,D] | [E,A,C]2[K:treble] [CGB]2 [CGB]2 [CGB]2 | %32
 [CGB]2 [G,CE]2- [G,CE]>[B,CG] [A,CF]>[K:bass][G,CE] | [F,D]2[K:treble] [DFA]2 [DA]2 [CEA]2 | %34
 [FA]6 [FB]>[Fc] | [B,=Fd]2 [B,Fd]2 [B,Fc]2 [DFB]2 | [Fd]2 [Fd]2 z2 [DFA][DFA] | %37
 [GB]2 z2 [GB]2 z2 | [FA]6 z2 | [B,=Fd]2 [B,Fd]2 [B,Fc]2 [B,FB]2 | [Fd]2 [Fd]2 [DA]2 [DFA]2 | %41
[M:9/8] [DGB]2 [D^GB]- [DGB] [E=Gc]2 [A,GA]3 |[M:3/4] [Fd]6 |] %43
V:2
 z8 | z2 ^D2 E2 F2 | G2 C>D[K:bass] [A,,A,]2[K:treble] A>B | %3
 [A,,A,]2[K:treble] c>d[K:bass] [A,,A,]2 [A,,A,]2 |[M:3/4] [A,,A,]2 A,>A, A,2 | %5
[M:1/4] [D,A,D]>[D,A,] |[M:4/4] [D,D]2 [D,D]2 [D,D]2 [D,A,]2 | [D,A,]2 [D,A,D]4 [D,A,D]>[D,A,] | %8
 [D,F,A,]2 [D,A,D]2 [D,D]2 [D,A,]2 | [E,A,]6 [A,,A,]>[A,,A,] | %10
 [A,,A,]2 [A,,A,]2 [A,,A,]2 [A,,A,]2 | [A,,A,]2 A,,4 [A,,A,]>[A,,A,] | %12
 [A,,A,]2 [A,,A,]2 [A,,A,]2 [A,,A,]2 | [D,A,]6 [D,A,]>[D,A,] | [D,D]2 [D,D]2 [D,D]2 [D,D]2 | %15
 [D,A,]2 [D,A,D]4 [F,A,]>[F,A,] | [G,D]2 [F,A,^D]2 [E,G,E]2 [D,^G,]2 | %17
 [C,A,]2 B,,2 A,,2 [G,,G,A,]>[G,,G,A,] | [F,A,D]2 [D,F,D]2 [E,G,D]2 [F,A,D]2 | %19
 [G,B,D]2 [G,B,D]4 [G,B,D]>[^G,D=F] | [A,DF]2[K:bass] [A,E]2 A,,2 A,,2 |[M:3/4] D,6 | %22
[M:1/4] D,>D, |[M:4/4] A,,2 A,,2 A,,2 A,,2 | A,,2 A,,4 A,,A,, | D,2 D,2 F,2 A,2 | %26
 [D,D]6 [D,D]>[D,D] | [D,A,]2 [D,A,]2 [D,A,]2 [D,A,]2 | [E,A,]2 [E,A,]4 E,>E, | %29
 A,,2 A,,2 A,,2 A,,2 | D,4- D,>D, D,>D, | A,,2 A,,2 A,,2 A,,2 | A,,2 A,,2- A,,>A,, A,,>A,, | %33
 D,2 D,2 F,2 A,2 | [D,D]6 [D,D]>[D,A,] | ^G,,2 G,,2 G,,2 G,,2 | [A,,A,]2 [A,,A,]2 z2 A,,A,, | %37
 z2 G2 z2 G2 | D,2 D,2 D,2 D,>[D,A,] | ^G,,2 G,,2 G,,2 G,,2 | [A,,A,]2 A,2 F,2 D,2 | %41
[M:9/8] G,2 F,- F, A,2 A,,3 |[M:3/4] [D,A,]6 |] %43
V:3
 x8 | A8- | A2 z2 z4 | x8 |[M:3/4] x6 |[M:1/4] x2 |[M:4/4] x8 | x8 | x8 | x8 | x8 | x8 | x8 | x8 | %14
 x8 | x8 | x8 | E2 [D^G]2 [C=G]2 [Ec]>[Ec] | x8 | x8 | x6[K:bass] x2 |[M:3/4] x6 |[M:1/4] x2 | %23
[M:4/4] x2[K:treble] x6 | x7[K:bass] x | x2[K:treble] x6 | x8 | x8 | x8 | x8 | x6[K:bass] x2 | %31
 x2[K:treble] x6 | x15/2[K:bass] x/ | x2[K:treble] x6 | x8 | x8 | x8 | C2- [CA]2 C2- [CA]2 | %38
 D2 CB, A,2 [DFB]>[Fc] | x8 | x8 |[M:9/8] x9 |[M:3/4] x6 |] %43
V:4
 x8 | x8 | x4[K:bass] x2[K:treble] x2 | x2[K:treble] x2[K:bass] x4 |[M:3/4] x6 |[M:1/4] x2 | %6
[M:4/4] x8 | x8 | x8 | x8 | x8 | x8 | x8 | x8 | x8 | x8 | x8 | x8 | x8 | x8 | x2[K:bass] x6 | %21
[M:3/4] x6 |[M:1/4] x2 |[M:4/4] x8 | x8 | x8 | x8 | x8 | x8 | x8 | x8 | x8 | x8 | x8 | x8 | x8 | %36
 x8 | A,,4 A,,4 | x8 | x8 | x8 |[M:9/8] x9 |[M:3/4] x6 |] %43

